X: 8
T: Far Away
C: Pete Jung
Z: shanachie
S: https://thesession.org/tunes/187#setting38438
R: waltz
M: 3/4
L: 1/8
K: Bmin
|:FA|B2 BA Bd|cA F2 FA|B2 BA Be|c4dc|
B2 BA Bd|cB A2 de|fe dc BA|1 B2 BA:|2 B2 Bc de||
|:f2 fe fa|ec A3 e|f2fe fa|e4de|
Lfd BLe cA|LdB GLc AE|F2 B2 Ac|1 B2 Bc de:|2 B2 BA||

